X: 3225
T: Beggar, The
R: polka
M: 2/4
K: Gmajor
G2AB|c2B2 ABAG|E6 GE|D2D2 E2G2|G6 (3GAB|
c2B2 ABAG|E2 EDE2 GE|D2D2 E2G2|G6|
] AB|c2B2 c2d2|edef g2ge|d2B2 cBAG|d6 g2|
d2cB cBAG|E2ED E2GE|D2D2 E2G2|G6||

